X:12727
T:Paddy's the Boy Jig
M:6/8
L:1/8
K:G
d/c/|B3 GBd|cBc ABc|BAB GBd|cAG FGA|!
B3 GBd|cBc ABc|ded cAF|AGG G2:|!
|:d|gag fed|cAG FGA|G2 g gfg|afd d2 e|!
f3 fed|cAG FGA|B2 d cAF|AGG G2:|!
